!!!OTL: MICH FLIEHEN ALLE FREUDEN
!!!ARE: Europa, Mitteleuropa, Deutschland
!!!SCT: F0954
!!!YEM: Copyright 1995, estate of Helmut Schaffrath.
**kern
*ICvox
*Ivox
*M6/8
*k[f#]
*G:
{8dd
=1
4b
8b
4a
8a
=2
4g
8g
4r}
{8dd
=3
4dd
8g
4ee
8ee
=4
4.a
4r}
{8a
=5
4b
8b
4cc
8cc
=6
4.dd
4ee}
{8ee
=7
4g
8g
4a
16g
16a
=8
4g
4.r}
{8dd
=9
4g#
8g#
4ee
8dd
=10
8.cc
16cc
8cc
4r}
{8cc
=11
4f#
8f#
4dd
8cc
=12
8.b
16b
8b
4r}
{8g
=13
4cc#
8cc#
4cc#
8cc#
=14
4dd
4.r}
{8dd
=15
4cc
8cc
4b
8b
=16
4a
8a
4r}
{8a
=17
4b
8b
4cc
8cc
=18
4dd
4.r}
{8ee
=19
4g
8g
4a
16g
16a
=20
4g
4.r}
==
!!!AGN: Liebes - Lied, Klage
!!!ONB: ESAC (Essen Associative Code) Database: FINK
!!!AMT: compound duple
!!!AIN: vox
!!!EED: Helmut Schaffrath
!!!EEV: 1.0
*-
